src/icons/cuda.svg

<svg
  xml:space="preserve"
  xmlns="http://www.w3.org/2000/svg"
  viewBox="0 0 200 200"
>
  <path
    d="M76.362 75.199V64.116c1.095-.068 2.19-.137 3.284-.137 30.377-.958 50.286 26.135 50.286 26.135s-21.483 29.83-44.539 29.83c-3.079 0-6.089-.48-8.962-1.438v-33.66c11.836 1.436 14.23 6.636 21.277 18.471l15.804-13.273s-11.562-15.12-30.992-15.12c-2.053-.068-4.105.069-6.158.274m0-36.67v16.556l3.284-.205c42.213-1.437 69.784 34.618 69.784 34.618s-31.608 38.45-64.516 38.45c-2.873 0-5.678-.274-8.483-.753v10.262c2.326.274 4.72.48 7.046.48 30.65 0 52.817-15.668 74.3-34.14 3.558 2.874 18.13 9.784 21.14 12.794-20.388 17.104-67.937 30.856-94.893 30.856-2.6 0-5.062-.137-7.525-.41v14.436h116.44V38.532zm0 79.977v8.757C48.038 122.2 40.17 92.712 40.17 92.712s13.615-15.05 36.192-17.514v9.579h-.068c-11.836-1.437-21.14 9.646-21.14 9.646s5.268 18.678 21.209 24.082M26.077 91.481S42.839 66.714 76.43 64.115v-9.03c-37.217 3.009-69.373 34.48-69.373 34.48s18.199 52.68 69.305 57.47v-9.579c-37.492-4.652-50.286-45.975-50.286-45.975z"
    fill="#8bc34a"
    style="fill: #76b900"
  />
</svg>

<svg viewBox="0 0 200 200" xmlns="http://www.w3.org/2000/svg">
  <path
    d="M76.362 75.199V64.116C77.457 64.048 78.552 63.979 79.646 63.979C110.023 63.021 129.932 90.114 129.932 90.114C129.932 90.114 108.449 119.944 85.393 119.944C82.314 119.944 79.304 119.464 76.431 118.506V84.846C88.267 86.282 90.661 91.482 97.708 103.317L113.512 90.044C113.512 90.044 101.95 74.924 82.52 74.924C80.467 74.856 78.415 74.994 76.362 75.199ZM76.362 38.528V55.084L79.646 54.879C121.859 53.442 149.43 89.497 149.43 89.497C149.43 89.497 117.822 127.947 84.914 127.947C82.041 127.947 79.236 127.673 76.431 127.194V137.456C78.757 137.73 81.151 137.936 83.477 137.936C114.127 137.936 136.294 122.268 157.777 103.796C161.335 106.67 175.907 113.58 178.917 116.59C158.529 133.694 110.98 147.446 84.024 147.446C81.424 147.446 78.962 147.309 76.499 147.036V161.472H192.939V38.532L76.362 38.528ZM76.362 118.505V127.262C48.038 122.2 40.17 92.712 40.17 92.712C40.17 92.712 53.785 77.663 76.362 75.199V84.777H76.294C64.458 83.34 55.154 94.423 55.154 94.423C55.154 94.423 60.421 113.101 76.362 118.505ZM26.077 91.481C26.077 91.481 42.839 66.714 76.43 64.115V55.085C39.213 58.094 7.057 89.565 7.057 89.565C7.057 89.565 25.256 142.245 76.362 147.035V137.456C38.87 132.804 26.077 91.481 26.077 91.481Z"
    fill="#76B900"
  />
</svg>
